source/img/icon-facebook.svg

<svg xmlns="http://www.w3.org/2000/svg" viewBox="0 0 10 19"><path d="M7.05 19H2v-8.84H0V5.8h1.94a5.68 5.68 0 011.13-4.41A4.76 4.76 0 016.46 0H10v4.21H7.22A4.2 4.2 0 007 5.8h3v4.37H7.05zm-3.93-1h2.82V9.14h2.93V6.83H5.94v-.51c0-1.39 0-2.59.75-3.05l.14-.09h2.06V1h-2.4a3.54 3.54 0 00-2.57 1c-.77.84-1 2.26-.82 4.21l.07.57H1.11v2.36h2z"/></svg>

<svg xmlns="http://www.w3.org/2000/svg" viewBox="0 0 10 19"><path d="M7.05,19H2V10.16H0V5.8H1.94A5.68,5.68,0,0,1,3.07,1.39,4.76,4.76,0,0,1,6.46,0H10V4.21H7.22A4.2,4.2,0,0,0,7,5.8H10v4.37H7.05ZM3.12,18H5.94V9.14H8.87V6.83H5.94V6.32c0-1.39,0-2.59.75-3.05l.14-.09H8.89V1H6.49a3.54,3.54,0,0,0-2.57,1c-.77.84-1,2.26-.82,4.21l.07.57H1.11V9.14h2Z"/></svg>
